app/assets/images/arrow_icon_left.svg

<?xml version="1.0" encoding="utf-8"?>
<!-- Generator: Adobe Illustrator 22.0.1, SVG Export Plug-In . SVG Version: 6.00 Build 0)  -->
<svg version="1.1" id="Layer_1" xmlns="http://www.w3.org/2000/svg" xmlns:xlink="http://www.w3.org/1999/xlink" x="0px" y="0px"
	 width="36px" height="36px" viewBox="0 0 36 36" style="enable-background:new 0 0 36 36;" xml:space="preserve">
<style type="text/css">
	.st0{fill:#0792D1;}
	.st1{fill:#FFFFFF;}
</style>
<title>arrow_icon_left</title>
<desc>Created with Sketch.</desc>
<g id="Page-1">
	<g id="arrow_icon_left" transform="translate(18.000000, 18.000000) scale(-1, 1) translate(-18.000000, -18.000000) ">
		<circle id="Oval-3" class="st0" cx="18" cy="18" r="18"/>
		<path id="Shape" class="st1" d="M26.8,16.7l-6-6.4c-0.4-0.4-1.2-0.5-1.6-0.1s-0.4,1.2,0,1.6l4.2,4.5H11.1c-0.6,0-1.1,0.5-1.1,1.1
			s0.5,1.1,1.1,1.1h12.3L19.2,23c-0.4,0.4-0.5,1.2,0,1.6c0.4,0.4,1.2,0.3,1.6-0.1l6-6.4c0.2-0.2,0.3-0.5,0.3-0.8
			C27.1,17.2,27,16.9,26.8,16.7z"/>
	</g>
</g>
</svg>

<?xml version="1.0" encoding="UTF-8"?>
<svg width="36px" height="36px" viewBox="0 0 36 36" version="1.1" xmlns="http://www.w3.org/2000/svg" xmlns:xlink="http://www.w3.org/1999/xlink">
    <!-- Generator: Sketch 47 (45396) - http://www.bohemiancoding.com/sketch -->
    <title>arrow_icon_left</title>
    <desc>Created with Sketch.</desc>
    <defs></defs>
    <g id="Page-1" stroke="none" stroke-width="1" fill="none" fill-rule="evenodd">
        <g id="arrow_icon_left" transform="translate(18.000000, 18.000000) scale(-1, 1) translate(-18.000000, -18.000000) " fill-rule="nonzero">
            <circle id="Oval-3" fill="#7ED321" cx="18" cy="18" r="18"></circle>
            <path d="M26.8,16.7 L20.8,10.3 C20.4,9.9 19.6,9.8 19.2,10.2 C18.8,10.6 18.8,11.4 19.2,11.8 L23.4,16.3 L11.1,16.3 C10.5,16.3 10,16.8 10,17.4 C10,18 10.5,18.5 11.1,18.5 L23.4,18.5 L19.2,23 C18.8,23.4 18.7,24.2 19.2,24.6 C19.6,25 20.4,24.9 20.8,24.5 L26.8,18.1 C27,17.9 27.1,17.6 27.1,17.3 C27.1,17.2 27,16.9 26.8,16.7 Z" id="Shape" fill="#000000"></path>
        </g>
    </g>
</svg>
